styles/1/Numix/32/places/yellow-folder-publicshare.svg

<?xml version="1.0" encoding="UTF-8" standalone="no"?>
<!-- Created with Inkscape (http://www.inkscape.org/) -->

<svg
   xmlns:dc="http://purl.org/dc/elements/1.1/"
   xmlns:cc="http://creativecommons.org/ns#"
   xmlns:rdf="http://www.w3.org/1999/02/22-rdf-syntax-ns#"
   xmlns:svg="http://www.w3.org/2000/svg"
   xmlns="http://www.w3.org/2000/svg"
   xmlns:sodipodi="http://sodipodi.sourceforge.net/DTD/sodipodi-0.dtd"
   xmlns:inkscape="http://www.inkscape.org/namespaces/inkscape"
   width="32"
   height="32"
   id="svg2"
   version="1.1"
   inkscape:version="0.91 r"
   sodipodi:docname="yellow-folder-publicshare.svg"
   inkscape:export-filename="/media/Data/Main/Visuals/Icons/Numix/Desktop/repos/numix-wiki/Gjorgi/Numix-folders/48/New/folder-144.png"
   inkscape:export-xdpi="270"
   inkscape:export-ydpi="270">
  <defs
     id="defs4" />
  <sodipodi:namedview
     id="base"
     pagecolor="#ffffff"
     bordercolor="#666666"
     borderopacity="1.0"
     inkscape:pageopacity="0.0"
     inkscape:pageshadow="2"
     inkscape:zoom="10.149094"
     inkscape:cx="-4.4193263"
     inkscape:cy="7.421782"
     inkscape:document-units="px"
     inkscape:current-layer="layer1"
     showgrid="true"
     inkscape:window-width="1280"
     inkscape:window-height="998"
     inkscape:window-x="0"
     inkscape:window-y="0"
     inkscape:window-maximized="1"
     showguides="true"
     inkscape:guide-bbox="true">
    <inkscape:grid
       type="xygrid"
       id="grid2985"
       empspacing="5"
       visible="true"
       enabled="true"
       snapvisiblegridlinesonly="true" />
  </sodipodi:namedview>
  <metadata
     id="metadata7">
    <rdf:RDF>
      <cc:Work
         rdf:about="">
        <dc:format>image/svg+xml</dc:format>
        <dc:type
           rdf:resource="http://purl.org/dc/dcmitype/StillImage" />
        <dc:title />
      </cc:Work>
    </rdf:RDF>
  </metadata>
  <g
     inkscape:label="Layer 1"
     inkscape:groupmode="layer"
     id="layer1"
     transform="translate(0,-1020.3622)">
    <path
       style="font-size:medium;font-style:normal;font-variant:normal;font-weight:normal;font-stretch:normal;text-indent:0;text-align:start;text-decoration:none;line-height:normal;letter-spacing:normal;word-spacing:normal;text-transform:none;direction:ltr;block-progression:tb;writing-mode:lr-tb;text-anchor:start;baseline-shift:baseline;color:#000000;fill:#ffca28;fill-opacity:1;fill-rule:nonzero;stroke:none;stroke-width:2.28612947;marker:none;visibility:visible;display:inline;overflow:visible;enable-background:accumulate;font-family:Sans;-inkscape-font-specification:Sans"
       d="M 2.03125 4 C 1.4665378 4.056 0.99079304 4.58885 1 5.15625 L 1 26.84375 C 0.99302 27.45105 1.5489584 28.007 2.15625 28 L 29.84375 28 C 30.451042 28.01 31.006984 27.45105 31 26.84375 L 31 7.15625 C 31.007 6.54895 30.451042 5.993 29.84375 6 L 19 6 L 19 5.15625 C 19.0069 4.55935 18.471863 4.0095 17.875 4 L 2.15625 4 L 2.03125 4 z M 17.9375 11 C 19.341857 11 20.5 12.09925 20.5 13.46875 C 20.484135 13.94785 20.457715 14.47205 20.15625 15.78125 C 20.100668 15.95255 19.984663 16.1201 19.84375 16.3125 C 19.717208 16.4853 19.554218 16.6952 19.40625 16.875 C 19.37401 17.2034 19.37552 17.51515 19.40625 17.84375 C 19.816135 18.18785 20.564049 18.5221 21.25 18.8125 C 21.603184 18.9621 21.930923 19.11655 22.1875 19.28125 C 22.315788 19.36355 22.44398 19.42655 22.53125 19.53125 C 22.612995 19.62925 22.64805 19.76995 22.65625 19.90625 L 23 22.34375 C 23 22.64215 22.806316 22.89985 22.53125 23.09375 C 22.256184 23.28775 21.891439 23.4271 21.4375 23.5625 C 20.529621 23.8333 19.298084 24 17.9375 24 C 16.576916 24 15.345379 23.8333 14.4375 23.5625 C 13.983561 23.4271 13.58757 23.28775 13.3125 23.09375 C 13.037434 22.89985 12.84375 22.64215 12.84375 22.34375 L 13.15625 19.90625 C 13.15621 19.89225 13.1866 19.92025 13.1875 19.90625 C 13.20471 19.62085 13.379292 19.38585 13.625 19.21875 C 13.882542 19.04365 14.209436 18.8945 14.5625 18.75 C 15.239977 18.4728 15.989249 18.16915 16.40625 17.84375 C 16.46023 17.46175 16.45299 17.1678 16.40625 16.8125 C 16.254137 16.6439 16.092929 16.44075 15.96875 16.28125 C 15.830007 16.10315 15.74145 15.94755 15.6875 15.78125 L 15.65625 15.78125 C 15.3889 14.52395 15.38537 13.93875 15.375 13.46875 C 15.375 12.09925 16.533144 11 17.9375 11 z M 13.15625 11.46875 C 13.679007 11.46875 14.163229 11.66645 14.53125 11.96875 L 14.65625 12.03125 L 14.59375 12.125 C 14.527124 12.3345 14.46875 12.559 14.46875 12.75 C 14.478786 13.2045 14.51708 13.72645 14.78125 14.96875 C 14.82037 15.08935 14.81981 15.20305 14.84375 15.34375 L 14.875 15.40625 L 14.84375 15.4375 C 14.772855 15.6096 14.616396 15.92795 14.40625 16.21875 C 14.40535 16.22775 14.40715 16.24 14.40625 16.25 C 14.3779 16.5287 14.37953 16.81405 14.40625 17.09375 C 14.543917 17.20465 14.718813 17.3284 14.9375 17.4375 L 15.21875 17.5625 L 14.9375 17.75 C 14.384088 18.0458 13.670894 18.2568 13.125 18.5 C 12.85205 18.6215 12.623275 18.7518 12.46875 18.875 C 12.314228 18.9981 12.249576 19.11975 12.25 19.21875 L 11.9375 21.625 C 11.9375 21.634 11.937897 21.64625 11.9375 21.65625 C 11.93467 21.71935 11.9268 21.78175 11.90625 21.84375 C 11.89456 21.87905 11.90217 21.92975 11.875 21.96875 C 11.86142 21.98775 11.81313 22.01025 11.78125 22.03125 C 11.755494 22.04725 11.72983 22.03135 11.6875 22.03125 L 11.65625 22.03125 C 10.877458 21.94865 10.232828 21.8269 9.78125 21.625 C 9.552293 21.5227 9.353675 21.3887 9.21875 21.25 C 9.083817 21.1112 9 20.96525 9 20.78125 L 9 20.75 L 9.28125 18.78125 C 9.28119 18.76625 9.31155 18.764 9.3125 18.75 C 9.329352 18.5193 9.456775 18.3226 9.65625 18.1875 C 9.867322 18.0446 10.117034 17.93 10.40625 17.8125 C 10.964179 17.5858 11.565563 17.36235 11.90625 17.09375 C 11.94805 16.78835 11.94325 16.50345 11.90625 16.21875 C 11.783936 16.08295 11.663684 15.91075 11.5625 15.78125 C 11.446924 15.63315 11.3572 15.5128 11.3125 15.375 C 11.093118 14.3433 11.071 13.8851 11.0625 13.5 C 11.0625 12.3762 12.002764 11.46875 13.15625 11.46875 z "
       transform="translate(0,1020.3622)"
       id="path3912" />
  </g>
</svg>

<!-- Created with Inkscape (http://www.inkscape.org/) -->
<svg xmlns="http://www.w3.org/2000/svg" viewBox="0 0 32 32">
 <g transform="translate(0,-1020.3622)">
  <path d="m 2.031 4 c -0.565 0.056 -1.04 0.589 -1.031 1.156 l 0 21.688 c -0.007 0.607 0.549 1.163 1.156 1.156 l 27.688 0 c 0.607 0.01 1.163 -0.549 1.156 -1.156 l 0 -19.688 c 0.007 -0.607 -0.549 -1.163 -1.156 -1.156 l -10.844 0 l 0 -0.844 c 0.007 -0.597 -0.528 -1.147 -1.125 -1.156 l -15.719 0 l -0.125 0 z m 15.906 7 c 1.404 0 2.563 1.099 2.563 2.469 c -0.016 0.479 -0.042 1 -0.344 2.313 c -0.056 0.171 -0.172 0.339 -0.313 0.531 c -0.127 0.173 -0.29 0.383 -0.438 0.563 c -0.032 0.328 -0.031 0.64 0 0.969 c 0.41 0.344 1.158 0.678 1.844 0.969 c 0.353 0.15 0.681 0.304 0.938 0.469 c 0.128 0.082 0.256 0.145 0.344 0.25 c 0.082 0.098 0.117 0.239 0.125 0.375 l 0.344 2.438 c 0 0.298 -0.194 0.556 -0.469 0.75 c -0.275 0.194 -0.64 0.333 -1.094 0.469 c -0.908 0.271 -2.139 0.438 -3.5 0.438 c -1.361 0 -2.592 -0.167 -3.5 -0.438 c -0.454 -0.135 -0.85 -0.275 -1.125 -0.469 c -0.275 -0.194 -0.469 -0.452 -0.469 -0.75 l 0.313 -2.438 c 0 -0.014 0.03 0.014 0.031 0 c 0.017 -0.285 0.192 -0.52 0.438 -0.688 c 0.258 -0.175 0.584 -0.324 0.938 -0.469 c 0.677 -0.277 1.427 -0.581 1.844 -0.906 c 0.054 -0.382 0.047 -0.676 0 -1.031 c -0.152 -0.169 -0.313 -0.372 -0.438 -0.531 c -0.139 -0.178 -0.227 -0.334 -0.281 -0.5 l -0.031 0 c -0.267 -1.257 -0.271 -1.842 -0.281 -2.313 c 0 -1.37 1.158 -2.469 2.563 -2.469 z m -4.781 0.469 c 0.523 0 1.01 0.198 1.375 0.5 l 0.125 0.063 l -0.063 0.094 c -0.067 0.21 -0.125 0.434 -0.125 0.625 c 0.01 0.454 0.048 0.976 0.313 2.219 c 0.039 0.121 0.039 0.234 0.063 0.375 l 0.031 0.063 l -0.031 0.031 c -0.071 0.172 -0.227 0.49 -0.438 0.781 c -0.001 0.009 0.001 0.021 0 0.031 c -0.028 0.279 -0.027 0.564 0 0.844 c 0.138 0.111 0.313 0.235 0.531 0.344 l 0.281 0.125 l -0.281 0.188 c -0.553 0.296 -1.267 0.507 -1.813 0.75 c -0.273 0.122 -0.502 0.252 -0.656 0.375 c -0.155 0.123 -0.219 0.245 -0.219 0.344 l -0.313 2.406 c 0 0.009 0 0.021 0 0.031 c -0.003 0.063 -0.011 0.125 -0.031 0.188 c -0.012 0.035 -0.004 0.086 -0.031 0.125 c -0.014 0.019 -0.062 0.041 -0.094 0.063 c -0.026 0.016 -0.051 0 -0.094 0 l -0.031 0 c -0.779 -0.083 -1.423 -0.204 -1.875 -0.406 c -0.229 -0.102 -0.428 -0.236 -0.563 -0.375 c -0.135 -0.139 -0.219 -0.285 -0.219 -0.469 l 0 -0.031 l 0.281 -1.969 c 0 -0.015 0.03 -0.017 0.031 -0.031 c 0.017 -0.231 0.144 -0.427 0.344 -0.563 c 0.211 -0.143 0.461 -0.258 0.75 -0.375 c 0.558 -0.227 1.159 -0.45 1.5 -0.719 c 0.042 -0.305 0.037 -0.59 0 -0.875 c -0.122 -0.136 -0.243 -0.308 -0.344 -0.438 c -0.116 -0.148 -0.205 -0.268 -0.25 -0.406 c -0.219 -1.032 -0.242 -1.49 -0.25 -1.875 c 0 -1.124 0.94 -2.031 2.094 -2.031 z" transform="translate(0,1020.3622)" style="visibility:visible;fill:#ffca28;fill-opacity:1;stroke:none;display:inline;color:#000;fill-rule:nonzero"/>
 </g>
</svg>
